Suru++-Ubuntu/apps/scalable/atril.svg

<svg width="256" height="256" style="enable-background:new" version="1.0" xmlns="http://www.w3.org/2000/svg" xmlns:xlink="http://www.w3.org/1999/xlink">
 <defs>
  <filter id="filter925" x="-.02" y="-.03" width="1.046" height="1.05" style="color-interpolation-filters:sRGB">
   <feGaussianBlur stdDeviation="2.32"/>
  </filter>
  <filter id="filter931" x="-.01" y="-.01" width="1.023" height="1.025" style="color-interpolation-filters:sRGB">
   <feGaussianBlur stdDeviation="1.16"/>
  </filter>
  <linearGradient id="linearGradient1108" x1="296" x2="296" y1="-212" y2="236" gradientUnits="userSpaceOnUse">
   <stop style="stop-color:#ffffff" offset="0"/>
   <stop style="stop-color:#ffffff;stop-opacity:.09803922" offset=".125"/>
   <stop style="stop-color:#000000;stop-opacity:.09803922" offset=".925"/>
   <stop style="stop-color:#000000;stop-opacity:.49803922" offset="1"/>
  </linearGradient>
  <clipPath id="clipPath1082-3">
   <path d="M 361.9375,-212 C 507.2348,-212 528,-191.28677 528,-46.125 V 70.125 C 528,215.28618 507.2348,236 361.9375,236 H 214.0625 C 68.7652,236 48,215.28618 48,70.125 V -46.125 C 48,-191.28677 68.7652,-212 214.0625,-212 Z" style="fill:#8c59d9"/>
  </clipPath>
  <filter id="filter1576" x="-.04" y="-.02" width="1.079" height="1.034" style="color-interpolation-filters:sRGB">
   <feGaussianBlur stdDeviation=".513"/>
  </filter>
 </defs>
 <g transform="translate(0,-44)">
  <path d="m162.53675 62.431991c72.64865 0 83.03125 10.356615 83.03125 82.937499v58.125c0 72.58059-10.3826 82.9375-83.03125 82.9375h-73.9375c-72.64865 0-83.03125-10.35691-83.03125-82.9375v-58.125c0-72.580884 10.3826-82.937499 83.03125-82.937499z" style="filter:url(#filter925);opacity:.2"/>
  <path d="m162.53675 61.431991c72.64865 0 83.03125 10.356615 83.03125 82.937499v58.125c0 72.58059-10.3826 82.9375-83.03125 82.9375h-73.9375c-72.64865 0-83.03125-10.35691-83.03125-82.9375v-58.125c0-72.580884 10.3826-82.937499 83.03125-82.937499z" style="filter:url(#filter931);opacity:.1"/>
  <path d="m162.53675 60.431991c72.64865 0 83.03125 10.356615 83.03125 82.937499v58.125c0 72.58059-10.3826 82.9375-83.03125 82.9375h-73.9375c-72.64865 0-83.03125-10.35691-83.03125-82.9375v-58.125c0-72.580884 10.3826-82.937499 83.03125-82.937499z" style="fill:#648ec0"/>
  <path transform="matrix(.5 0 0 .5 -18.432 166.43199)" d="M 361.9375,-212 C 507.2348,-212 528,-191.28677 528,-46.125 V 70.125 C 528,215.28618 507.2348,236 361.9375,236 H 214.0625 C 68.7652,236 48,215.28618 48,70.125 V -46.125 C 48,-191.28677 68.7652,-212 214.0625,-212 Z" clip-path="url(#clipPath1082-3)" style="fill:none;opacity:.4;stroke-linecap:round;stroke-linejoin:round;stroke-width:8;stroke:url(#linearGradient1108)"/>
 </g>
 <g transform="matrix(1.1810781,0,0,-1.1810781,-27.815308,301.17035)" style="fill:#e8e5e4">
  <path d="m178.61697 233.49545 16.61391-17.22927"/>
  <g transform="translate(0 .42334222)">
   <path d="m74.213887 65.338905v169.1621h103.49295l17.89215-16.61505v-152.54704z" style="fill:#e8e5e4"/>
   <path d="m195.42764 216.89535h-17.89215v16.61503z" style="opacity:.2"/>
   <path d="m195.53942 217.74204h-17.89214v16.61503z" style="fill:#f1f1f1"/>
  </g>
 </g>
 <rect x="49.21" y="45.82" width="120.365" height="117.112" style="opacity:.2"/>
 <rect x="49.21" y="42.57" width="120.365" height="117.112" style="fill:#fdef6a"/>
 <path d="m74.213887 68.156306v146.50478h89.631263l15.4957-14.38965v-132.11513z" style="fill:#0b0b0b;opacity:.2"/>
 <path d="m74.213887 65.338905v146.50478h89.631263l15.4957-14.38965v-132.11512z" style="fill-opacity:.95238097;fill:#ffffff"/>
 <path d="m195.59833 217.27219 17.89281-18.55547-3.25313 60.18266-43.91708-3.25311 3.25313-11.38592 9.41036-9.75889" style="fill:none"/>
 <path d="m164.95161 211.84409 14.38868-14.92161" style="fill:none"/>
 <path d="m179.34085 197.60537h-15.4957v14.38963z" style="opacity:.2"/>
 <path d="m180.04519 197.60537h-15.49569v14.38963z" style="fill:#ffffff"/>
 <path d="m89.634766 20.898438a2.2827475 2.2827475 0 0 0-2.285157 2.294921l0.242188 48.957032c-0.01349 0.168478-0.192191 2.445898-0.08203 5.287109 0.114344 2.947627 0.337952 6.370657 2.076172 9.039062 1.946471 2.98809 5.237001 5.916016 10.046874 5.916016 4.686568 0 9.057568-2.217705 11.623048-5.84375 1.88442-2.663429 2.07943-6.117848 2.17578-9.08789 0.0921-2.842515-0.11417-5.119384-0.13281-5.320313l-0.17969-16.253906a2.2833572 2.2833572 0 1 0-4.56641 0.05273l0.18555 16.304688a2.2827475 2.2827475 0 0 0 0.01 0.191406s0.20875 2.230915 0.12304 4.875c-0.0857 2.644089-0.70346 5.696571-1.34375 6.601562-1.63589 2.31216-4.67973 3.917969-7.894528 3.917969-3.091502 0-4.716007-1.533841-6.220703-3.84375-0.647681-0.994274-1.237336-4.079717-1.339843-6.722656-0.102469-2.642938 0.07617-4.861328 0.07617-4.861328a2.2827475 2.2827475 0 0 0 0.0059-0.19336l-0.224609-46.74414h21.925782v0.335937h4.56641v-2.617187a2.2827475 2.2827475 0 0 0-2.28516-2.285156z" style="filter:url(#filter1576);opacity:.2"/>
 <path d="m89.634766 18.898438a2.2827475 2.2827475 0 0 0-2.285157 2.294921l0.242188 48.957032c-0.013492 0.168478-0.192191 2.445898-0.082031 5.287109 0.114344 2.947627 0.337952 6.370657 2.076172 9.039062 1.946471 2.98809 5.237001 5.916016 10.046874 5.916016 4.686568 0 9.057568-2.217705 11.623048-5.84375 1.88442-2.663429 2.07943-6.117848 2.17578-9.08789 0.09207-2.842515-0.11417-5.119384-0.13281-5.320313l-0.17969-16.253906a2.2827475 2.2827475 0 1 0-4.56641 0.052734l0.18555 16.304688a2.2827475 2.2827475 0 0 0 0.00977 0.191406s0.20875 2.230915 0.12304 4.875c-0.0857 2.644089-0.70346 5.696571-1.34375 6.601562-1.63589 2.31216-4.67973 3.917969-7.894528 3.917969-3.091502 0-4.716007-1.533841-6.220703-3.84375-0.647681-0.994274-1.237336-4.079717-1.339843-6.722656-0.102469-2.642938 0.076172-4.861328 0.076172-4.861328a2.2827475 2.2827475 0 0 0 0.005859-0.19336l-0.224609-46.74414h21.925782v0.335937h4.56641v-2.617187a2.2827475 2.2827475 0 0 0-2.28516-2.285156h-26.501954z" style="fill:#3260a4"/>
 <g transform="translate(1.5156784,-2.5395559)">
  <path d="m94.841127 106.13085v68.03738h62.803743" style="fill:none;stroke-width:3.9252336;stroke:#e7e6e4"/>
  <rect x="98.77" y="130.34" width="10.467" height="35.327" style="fill:#4eda7f"/>
  <rect x="114.47" y="145.38" width="10.467" height="20.935" style="fill:#8e5b9e"/>
  <rect x="130.17" y="116.6" width="10.467" height="49.72" style="fill:#f38d1e"/>
  <rect x="145.87" y="124.45" width="10.467" height="41.869" style="fill:#e11b22"/>
 </g>
</svg>

<svg xmlns="http://www.w3.org/2000/svg" xmlns:xlink="http://www.w3.org/1999/xlink" width="256" height="256" version="1.0" style="enable-background:new">
 <defs>
  <filter style="color-interpolation-filters:sRGB" id="filter925" width="1.046" height="1.05" x="-.02" y="-.03">
   <feGaussianBlur stdDeviation="2.32"/>
  </filter>
  <filter style="color-interpolation-filters:sRGB" id="filter931" width="1.023" height="1.025" x="-.01" y="-.01">
   <feGaussianBlur stdDeviation="1.16"/>
  </filter>
  <linearGradient id="linearGradient1108" x1="296" x2="296" y1="-212" y2="236" gradientUnits="userSpaceOnUse" xlink:href="#linearGradient1013"/>
  <linearGradient id="linearGradient1013">
   <stop offset="0" style="stop-color:#ffffff"/>
   <stop style="stop-color:#ffffff;stop-opacity:0.09803922" offset=".125"/>
   <stop style="stop-color:#000000;stop-opacity:0.09803922" offset=".925"/>
   <stop offset="1" style="stop-color:#000000;stop-opacity:0.49803922"/>
  </linearGradient>
  <clipPath id="clipPath1082-3" clipPathUnits="userSpaceOnUse">
   <path d="M 361.9375,-212 C 507.2348,-212 528,-191.28677 528,-46.125 V 70.125 C 528,215.28618 507.2348,236 361.9375,236 H 214.0625 C 68.7652,236 48,215.28618 48,70.125 V -46.125 C 48,-191.28677 68.7652,-212 214.0625,-212 Z" style="fill:#8c59d9"/>
  </clipPath>
  <filter style="color-interpolation-filters:sRGB" id="filter1576" width="1.079" height="1.034" x="-.04" y="-.02">
   <feGaussianBlur stdDeviation=".513"/>
  </filter>
 </defs>
 <g transform="translate(0,-44)">
  <g>
   <g>
    <path d="m 162.53675,62.431991 c 72.64865,0 83.03125,10.356615 83.03125,82.937499 v 58.125 c 0,72.58059 -10.3826,82.9375 -83.03125,82.9375 h -73.9375 c -72.64865,0 -83.0312501,-10.35691 -83.0312501,-82.9375 v -58.125 c 0,-72.580884 10.3826001,-82.937499 83.0312501,-82.937499 z" style="opacity:0.2;filter:url(#filter925)"/>
    <path style="opacity:0.1;filter:url(#filter931)" d="m 162.53675,61.431991 c 72.64865,0 83.03125,10.356615 83.03125,82.937499 v 58.125 c 0,72.58059 -10.3826,82.9375 -83.03125,82.9375 h -73.9375 c -72.64865,0 -83.0312501,-10.35691 -83.0312501,-82.9375 v -58.125 c 0,-72.580884 10.3826001,-82.937499 83.0312501,-82.937499 z"/>
   </g>
   <g>
    <path style="fill:#648ec0" d="m 162.53675,60.431991 c 72.64865,0 83.03125,10.356615 83.03125,82.937499 v 58.125 c 0,72.58059 -10.3826,82.9375 -83.03125,82.9375 h -73.9375 c -72.64865,0 -83.0312501,-10.35691 -83.0312501,-82.9375 v -58.125 c 0,-72.580884 10.3826001,-82.937499 83.0312501,-82.937499 z"/>
   </g>
   <g>
    <path d="M 361.9375,-212 C 507.2348,-212 528,-191.28677 528,-46.125 V 70.125 C 528,215.28618 507.2348,236 361.9375,236 H 214.0625 C 68.7652,236 48,215.28618 48,70.125 V -46.125 C 48,-191.28677 68.7652,-212 214.0625,-212 Z" clip-path="url(#clipPath1082-3)" transform="matrix(0.5,0,0,0.5,-18.432,166.43199)" style="opacity:0.4;fill:none;stroke:url(#linearGradient1108);stroke-width:8;stroke-linecap:round;stroke-linejoin:round"/>
   </g>
  </g>
 </g>
 <g transform="matrix(1.1810781,0,0,-1.1810781,-27.815308,301.17035)" style="fill:#e8e5e4">
  <path d="m 178.61697,233.49545 16.61391,-17.22927"/>
  <g transform="translate(0,0.42334222)">
   <path d="M 74.213887,65.338905 V 234.501 H 177.70684 l 17.89215,-16.61505 V 65.338905 Z" style="fill:#e8e5e4"/>
   <path d="m 195.42764,216.89535 h -17.89215 v 16.61503 z" style="opacity:0.2"/>
   <path style="fill:#f1f1f1" d="m 195.53942,217.74204 h -17.89214 v 16.61503 z"/>
  </g>
 </g>
 <rect width="120.365" height="117.112" x="49.21" y="45.82" style="opacity:0.2"/>
 <rect style="fill:#fdef6a" width="120.365" height="117.112" x="49.21" y="42.57"/>
 <path d="M 74.213887,68.156306 V 214.66109 h 89.631263 l 15.4957,-14.38965 V 68.156306 Z" style="opacity:0.2;fill:#0b0b0b"/>
 <path style="fill:#ffffff;fill-opacity:0.95238097" d="M 74.213887,65.338905 V 211.84368 h 89.631263 l 15.4957,-14.38965 V 65.338905 Z"/>
 <path style="fill:none" d="m 195.59833,217.27219 17.89281,-18.55547 -3.25313,60.18266 -43.91708,-3.25311 3.25313,-11.38592 v 0 l 9.41036,-9.75889"/>
 <path style="fill:none" d="m 164.95161,211.84409 14.38868,-14.92161"/>
 <path style="opacity:0.2" d="m 179.34085,197.60537 h -15.4957 V 211.995 Z"/>
 <path d="M 180.04519,197.60537 H 164.5495 V 211.995 Z" style="fill:#ffffff"/>
 <path d="m 89.634766,20.898438 a 2.2827475,2.2827475 0 0 0 -2.285157,2.294921 l 0.242188,48.957032 c -0.01349,0.168478 -0.192191,2.445898 -0.08203,5.287109 0.114344,2.947627 0.337952,6.370657 2.076172,9.039062 1.946471,2.98809 5.237001,5.916016 10.046874,5.916016 4.686568,0 9.057568,-2.217705 11.623048,-5.84375 1.88442,-2.663429 2.07943,-6.117848 2.17578,-9.08789 0.0921,-2.842515 -0.11417,-5.119384 -0.13281,-5.320313 l -0.17969,-16.253906 a 2.2833572,2.2833572 0 1 0 -4.56641,0.05273 l 0.18555,16.304688 a 2.2827475,2.2827475 0 0 0 0.01,0.191406 c 0,0 0.20875,2.230915 0.12304,4.875 -0.0857,2.644089 -0.70346,5.696571 -1.34375,6.601562 -1.63589,2.31216 -4.67973,3.917969 -7.894528,3.917969 -3.091502,0 -4.716007,-1.533841 -6.220703,-3.84375 -0.647681,-0.994274 -1.237336,-4.079717 -1.339843,-6.722656 -0.102469,-2.642938 0.07617,-4.861328 0.07617,-4.861328 a 2.2827475,2.2827475 0 0 0 0.0059,-0.19336 l -0.224609,-46.74414 h 21.925782 v 0.335937 h 4.56641 v -2.617187 a 2.2827475,2.2827475 0 0 0 -2.28516,-2.285156 z" style="opacity:0.2;filter:url(#filter1576)"/>
 <path style="fill:#3260a4" d="M 89.634766 18.898438 A 2.2827475 2.2827475 0 0 0 87.349609 21.193359 L 87.591797 70.150391 C 87.578305 70.318869 87.399606 72.596289 87.509766 75.4375 C 87.62411 78.385127 87.847718 81.808157 89.585938 84.476562 C 91.532409 87.464652 94.822939 90.392578 99.632812 90.392578 C 104.31938 90.392578 108.69038 88.174873 111.25586 84.548828 C 113.14028 81.885399 113.33529 78.43098 113.43164 75.460938 C 113.52371 72.618423 113.31747 70.341554 113.29883 70.140625 L 113.11914 53.886719 A 2.2827475 2.2827475 0 1 0 108.55273 53.939453 L 108.73828 70.244141 A 2.2827475 2.2827475 0 0 0 108.74805 70.435547 C 108.74805 70.435547 108.9568 72.666462 108.87109 75.310547 C 108.78539 77.954636 108.16763 81.007118 107.52734 81.912109 C 105.89145 84.224269 102.84761 85.830078 99.632812 85.830078 C 96.54131 85.830078 94.916805 84.296237 93.412109 81.986328 C 92.764428 80.992054 92.174773 77.906611 92.072266 75.263672 C 91.969797 72.620734 92.148438 70.402344 92.148438 70.402344 A 2.2827475 2.2827475 0 0 0 92.154297 70.208984 L 91.929688 23.464844 L 113.85547 23.464844 L 113.85547 23.800781 L 118.42188 23.800781 L 118.42188 21.183594 A 2.2827475 2.2827475 0 0 0 116.13672 18.898438 L 89.634766 18.898438 z"/>
 <g transform="translate(1.5156784,-2.5395559)">
  <path d="m 94.841127,106.13085 v 68.03738 h 62.803743" style="fill:none;stroke:#e7e6e4;stroke-width:3.9252336"/>
  <rect width="10.467" height="35.327" x="98.77" y="130.34" style="fill:#4eda7f"/>
  <rect style="fill:#8e5b9e" width="10.467" height="20.935" x="114.47" y="145.38"/>
  <rect width="10.467" height="49.72" x="130.17" y="116.6" style="fill:#f38d1e"/>
  <rect style="fill:#e11b22" width="10.467" height="41.869" x="145.87" y="124.45"/>
 </g>
</svg>
